!!!OTL: Gretelein.
!!!OTL-incipit: SCHAUST SO FREUNDLICH AUS
!!!COM: Volksweise
!!!ARE: Europa, Mitteleuropa, Deutschland
!!!SCT: F0962
!!!TXL: @@DE
!!!YEM: Copyright 1995, estate of Helmut Schaffrath.
**kern	**text
*ICvox	*
*M3/4	*
*k[b-e-]	*
*B-:	*
!LO:TX:a:t=Mäßig.	!
{8f	1._Schauſt
8b-	ſo
=1	=1
8dd	freundlich
8cc	.
4b-	aus,
8g	Gre-
8b-	-te-
=2	=2
[4f	-lein,
8f]	.
8r}	.
{8f	nimm
8b-	den
=3	=3
8dd	Blu-
8cc	-menſtrauß,
4b-	.
8g	er
8b-	sei
=4	=4
[4f	dein;
8f]	.
8r}	.
{8f	biſt
8b-	ein
=5	=5
8a	Kind
8cc	nicht
4f	mehr,
8en	Gre-
8f	-te-
=6	=6
(4g	-lein,
8f)	.
8r}	.
{8f	thuſt
8g	mir
=7	=7
8a	ei-
(16aL	-ne
16ddJ)	.
4a	Ehr',
8a	ſag'
8a	nicht
=8	=8
2a}	nein!
{8a	Schauſt
8a	ſo
=9	=9
8.cc	freund-
16b-	-lich
4f	aus,
8bn	ſchauſt
8bn	ſo
=10	=10
8.dd	freund-
16cc	-lich
4cc}	aus,
{8g	Gre-
8cc	-te-
=11	=11
2f	-lein,
8g	ſag'
8a	nicht
=12	=12
4b-	nein!
4r}	La,
{8.f	la
16g	la
=13	=13
(8.f\L	la
16ddJ)	.
4dd	la
4dd	la
=14	=14
(8ddL	la
8ff	.
8ee-	.
8bnJ)	la,
4cc}	la
=15	=15
{(8.a\L	la
16ggJ)	.
4gg;	la
4a	la,
=16	=16
4dd	la
4B-;}	la!
==	==
!!!AGN: Liebes - Lied
!!!ONB: ESAC (Essen Associative Code) Database: FINK
!!!AMT: simple triple
!!!AIN: vox
!!!EED: Helmut Schaffrath
!!!EEV: 1.0
!!Text: L. Hecker
!!!GTL: Minnelieder.
!!!source: Musikalischer Hausschatz der Deutschen. Eine Sammlung von über 1000 Liedern und Gesängen mit Singstimmen und Klavierbegleitung. Leipzig, Litterarisches Verlags-Haus.
!!!page: 716
!!!ENC: Anna Maria Matuszewska
!!!EEV: 2025/03/20
*-	*-
